X:150
T: Jenny Bell's
R: polka 48
M: 2/4
L: 1/8
K:Gmaj
E/F/|:Gg e/d/c/B/|dG G/F/G|AD FD|G/A/B/c/ d2|
Gg e/d/c/B/|dG G/F/G|DF/A/ dF|1GG GE/F/:|2GG GB/c/||
|:d/^c/d/e/ d2|d/g/B G/B/D|c/B/c/d/ c2|c/e/A F/A/D|
d/^c/d/e/ d2|d/g/B G/B/D|DF/A/ dF|1GG GB/c/:|2GG Ge/f/||
|:gf ed|cB AG|G/B/d/g/ gf|F/A/c/e/ ed|
gf ed|cB AG|DF/A/ dF|1GG Ge/f/:|2GG G||

